packages/foundations/assets/icons/functional/images/layout/filter.svg

<svg xmlns="http://www.w3.org/2000/svg" width="32" height="32" fill="none"><path fill="#1A1C1F" fill-rule="evenodd" d="M9.034 3.141c-.814.2-1.619.706-2.129 1.336-.305.377-.614.95-.714 1.322l-.061.224-1.753.015-1.754.015-.205.164c-.535.427-.535 1.166 0 1.593l.205.163 1.747.016 1.748.015.066.225c.106.358.459.998.735 1.331.769.929 1.858 1.436 3.081 1.436 1.135 0 1.974-.349 2.774-1.153.515-.518.81-.967.989-1.507l.112-.335 7.751-.014 7.751-.014.205-.163c.535-.427.535-1.166 0-1.593l-.205-.164-7.753-.014-7.754-.013-.06-.226c-.177-.656-.755-1.491-1.34-1.934-.426-.323-1.078-.63-1.574-.74-.505-.113-1.37-.106-1.862.015m1.808 2.075c.427.203.757.535.965.971.148.308.166.399.165.826 0 .408-.022.526-.143.787-.2.429-.61.845-1.017 1.033-.288.133-.396.154-.812.154s-.524-.021-.812-.154c-.407-.188-.817-.604-1.017-1.033-.121-.261-.143-.379-.143-.787-.001-.426.017-.518.164-.826a2.07 2.07 0 0 1 1.341-1.119c.363-.092.943-.026 1.309.148m10.651 6.836c-.974.103-1.942.623-2.603 1.401-.242.286-.595.918-.803 1.44l-.058.147h-7.657c-7.549 0-7.659.001-7.865.107-.285.145-.493.504-.493.851 0 .33.14.614.404.825l.205.164 7.72.014 7.72.013.067.227c.112.376.468 1.012.764 1.362a4.04 4.04 0 0 0 2.118 1.297c.635.16 1.546.125 2.161-.082 1.147-.387 2.108-1.306 2.506-2.397l.149-.408 1.686-.001c1.531-.001 1.706-.01 1.906-.101.688-.312.767-1.283.139-1.713l-.191-.131-1.774-.016-1.773-.015-.091-.278c-.573-1.768-2.352-2.903-4.237-2.706m1.298 2.163c.368.175.739.53.912.872.407.804.266 1.7-.365 2.331-.992.992-2.593.71-3.2-.565-.149-.313-.164-.395-.163-.853.002-.448.02-.544.157-.826a2.12 2.12 0 0 1 1.328-1.1c.092-.024.359-.035.593-.025.33.014.498.052.738.166M9.04 21.118a5 5 0 0 0-.621.206c-.974.422-1.86 1.371-2.182 2.337l-.11.332-1.69.017-1.69.017-.24.134c-.663.371-.647 1.375.026 1.728.202.105.309.112 1.924.126l1.711.016.094.313c.147.491.446.951.938 1.443.516.516.961.797 1.568.989a4.09 4.09 0 0 0 3.311-.362c.728-.43 1.423-1.278 1.686-2.057l.111-.33h7.614c5.684 0 7.66-.016 7.795-.063.83-.286.956-1.384.208-1.803l-.24-.134L21.578 24l-7.674-.027-.095-.279c-.422-1.239-1.522-2.248-2.81-2.578-.536-.137-1.438-.136-1.959.002m1.524 1.953q.838.246 1.263 1.051c.134.254.146.328.146.865s-.012.61-.146.864q-.425.806-1.263 1.051c-.798.233-1.695-.092-2.172-.787-.468-.681-.452-1.648.036-2.322.464-.64 1.369-.946 2.136-.722"/></svg>

<svg width="32" height="32" viewBox="0 0 32 32" fill="none" xmlns="http://www.w3.org/2000/svg"><path d="M9.034 3.141 C 8.220 3.341,7.415 3.847,6.905 4.477 C 6.600 4.854,6.291 5.427,6.191 5.799 L 6.130 6.023 4.377 6.038 L 2.623 6.053 2.418 6.217 C 1.883 6.644,1.883 7.383,2.418 7.810 L 2.623 7.973 4.370 7.989 L 6.118 8.004 6.184 8.229 C 6.290 8.587,6.643 9.227,6.919 9.560 C 7.688 10.489,8.777 10.996,10.000 10.996 C 11.135 10.996,11.974 10.647,12.774 9.843 C 13.289 9.325,13.584 8.876,13.763 8.336 L 13.875 8.001 21.626 7.987 L 29.377 7.973 29.582 7.810 C 30.117 7.383,30.117 6.644,29.582 6.217 L 29.377 6.053 21.624 6.039 L 13.870 6.026 13.810 5.800 C 13.633 5.144,13.055 4.309,12.470 3.866 C 12.044 3.543,11.392 3.236,10.896 3.126 C 10.391 3.013,9.526 3.020,9.034 3.141 M10.842 5.216 C 11.269 5.419,11.599 5.751,11.807 6.187 C 11.955 6.495,11.973 6.586,11.972 7.013 C 11.972 7.421,11.950 7.539,11.829 7.800 C 11.629 8.229,11.219 8.645,10.812 8.833 C 10.524 8.966,10.416 8.987,10.000 8.987 C 9.584 8.987,9.476 8.966,9.188 8.833 C 8.781 8.645,8.371 8.229,8.171 7.800 C 8.050 7.539,8.028 7.421,8.028 7.013 C 8.027 6.587,8.045 6.495,8.192 6.187 C 8.456 5.631,8.956 5.214,9.533 5.068 C 9.896 4.976,10.476 5.042,10.842 5.216 M21.493 12.052 C 20.519 12.155,19.551 12.675,18.890 13.453 C 18.648 13.739,18.295 14.371,18.087 14.893 L 18.029 15.040 10.372 15.040 C 2.823 15.040,2.713 15.041,2.507 15.147 C 2.222 15.292,2.014 15.651,2.014 15.998 C 2.014 16.328,2.154 16.612,2.418 16.823 L 2.623 16.987 10.343 17.001 L 18.063 17.014 18.130 17.241 C 18.242 17.617,18.598 18.253,18.894 18.603 C 19.429 19.236,20.168 19.689,21.012 19.900 C 21.647 20.060,22.558 20.025,23.173 19.818 C 24.320 19.431,25.281 18.512,25.679 17.421 L 25.828 17.013 27.514 17.012 C 29.045 17.011,29.220 17.002,29.420 16.911 C 30.108 16.599,30.187 15.628,29.559 15.198 L 29.368 15.067 27.594 15.051 L 25.821 15.036 25.730 14.758 C 25.157 12.990,23.378 11.855,21.493 12.052 M22.791 14.215 C 23.159 14.390,23.530 14.745,23.703 15.087 C 24.110 15.891,23.969 16.787,23.338 17.418 C 22.346 18.410,20.745 18.128,20.138 16.853 C 19.989 16.540,19.974 16.458,19.975 16.000 C 19.977 15.552,19.995 15.456,20.132 15.174 C 20.388 14.645,20.903 14.218,21.460 14.074 C 21.552 14.050,21.819 14.039,22.053 14.049 C 22.383 14.063,22.551 14.101,22.791 14.215 M9.040 21.118 C 8.835 21.172,8.555 21.265,8.419 21.324 C 7.445 21.746,6.559 22.695,6.237 23.661 L 6.127 23.993 4.437 24.010 L 2.747 24.027 2.507 24.161 C 1.844 24.532,1.860 25.536,2.533 25.889 C 2.735 25.994,2.842 26.001,4.457 26.015 L 6.168 26.031 6.262 26.344 C 6.409 26.835,6.708 27.295,7.200 27.787 C 7.716 28.303,8.161 28.584,8.768 28.776 C 9.883 29.130,11.091 28.998,12.079 28.414 C 12.807 27.984,13.502 27.136,13.765 26.357 L 13.876 26.027 21.490 26.027 C 27.174 26.027,29.150 26.011,29.285 25.964 C 30.115 25.678,30.241 24.580,29.493 24.161 L 29.253 24.027 21.578 24.000 L 13.904 23.973 13.809 23.694 C 13.387 22.455,12.287 21.446,10.999 21.116 C 10.463 20.979,9.561 20.980,9.040 21.118 M10.564 23.071 C 11.123 23.235,11.543 23.585,11.827 24.122 C 11.961 24.376,11.973 24.450,11.973 24.987 C 11.973 25.524,11.961 25.597,11.827 25.851 C 11.543 26.389,11.123 26.738,10.564 26.902 C 9.766 27.135,8.869 26.810,8.392 26.115 C 7.924 25.434,7.940 24.467,8.428 23.793 C 8.892 23.153,9.797 22.847,10.564 23.071 " fill="#1A1C1F" stroke="none" fill-rule="evenodd"></path></svg>
